X: 3391
T: NELLIE'S BIRTH DAY
%R: march
B: James Kerr "Merry Melodies" v.3 p.43 #391
Z: 2016 John Chambers <jc:trillian.mit.edu>
M: 2/4
L: 1/8
K: G
|:\
vG>vBdg | egd2 | c>dBG | AFG2 |\
G>Bdg | egd2 | c>dBG | (A2G2) ::\
dd/e/ cc/d/ | BdA2 | dd/e/ cc/d/ | BdA2 |\
G>Bdg | egd2 | c>dBG | (A2G2) :|

%%sep 1 1 500
%%sep 1 1 500

